X:1
T:Title
%%score { 1 | 2 }
L:1/8
M:6/8
K:Bb
V:1 treble nm="Grand Piano"
V:2 bass 
V:1
 z3 z2[Q:1/4=100] [DF] | [DF]2 [DF] [EG]2 [DF] | [F,B,D]2 [B,DF] [DFB]2 [B,FA] | %3
 [B,EG]2 [B,EG] [B,GB]2 [B,EG] |[M:5/8] [DF]-[DF]- [DF]3 |[M:1/8] [DF] |[M:3/4] A2 B c2 F | %7
 [DF]2 [EG] [DF]2 [FB] | A2 B c2 A |[M:5/8] [DB]-[DB]- [DB]3 |[M:1/8] [Fd] | %11
[M:3/4] [Fd]3 [DB]2 [DF] | [EG]3 [GB]2 [EG] | [DF][_D=E] [=DF][DB] [_Ec][Fd] |[M:5/8] d2 c c2 | %15
[M:1/8] [Fd] |[M:3/4] [Fd]3 [DB]2 [DF] |[M:7/8] G3 B3 G |[M:3/4] F=E F d2 [_Ec] | %19
[M:5/8] [DB]-[DB]- [DB]3 |] %20
V:2
 z3 z2 [B,,B,] | [B,,B,]2 [B,,B,] [B,,B,]2 [B,,B,] | B,,2 B,, B,,2 D, | E,2 E, E,2 E, | %4
[M:5/8] [B,,B,]-[B,,B,]- [B,,B,]3 |[M:1/8] [B,,B,] |[M:3/4] [F,CE]2 [F,B,D] [F,A,E]2 [F,A,E] | %7
 [B,,B,]2 [B,,B,] [B,,B,]2 [D,B,] | [F,CE]2 [F,B,D] [F,A,E]2 [F,CE] | %9
[M:5/8] [B,,B,]-[B,,B,]- [B,,B,]3 |[M:1/8] [B,,B,] |[M:3/4] [B,,B,]3 [B,,F,]2 [B,,B,] | %12
 [E,B,]3 [E,B,]2 [E,B,] | [B,,B,][B,,G,] [B,,F,][B,,F,] [B,,F,][B,,B,] | %14
[M:5/8] [F,B,F]2 [F,A,F] [F,A,F]2 |[M:1/8] [B,,B,] |[M:3/4] [B,,B,]3 [B,,F,]2 [B,,B,] | %17
[M:7/8] [E,B,E]3 [E,G,E]3 [E,B,E] |[M:3/4] [F,B,D][G,B,_D] [F,B,=D] [F,,F,A,F]2 [F,,F,] | %19
[M:5/8] [B,,F,]-[B,,F,]- [B,,F,]3 |] %20

